X:049
T:Stoke Hornpipe,aka TS.049
M:C|
L:1/8
Q:1/2=90
S:Thomas Sands’ MS,1810,Lincolnshire
C:untitled ‘Hornpipe’ in MS
N:Title from The Boat Band
R:.hornpipe
O:England;Lincolnshire
Z:vmp.Ruairidh Greig, 2011
K:Bb
dc|BFDF Bcdc|BFDF BcdB|ABcd edcB|A2c2c2dc|
BFDF Bcdc|BFDF Bcdc|egfe dcBA|B2B2B2:|
|:fe|defd gfed|e2c2c2ed|cdec fedc|d2B2B2dc|
BFDF BcdB|efga bagf|gfgd ecBA|c2B2B2:|

